X: 1
T: The Redesdale
M: 4/4
L: 1/8
R: hornpipe
K: Gmaj
(3def|:gdBd GB (3def|gdBg G2AB|cAFA DFAc|ed^c<d B2 (3def|
gdBd GB (3def|gdBg G2AB|cAFA DFAB|1 A2G2 G2 (3def:|2 A2G2 G3A||
|:BGFG DGFG|BGFG D2AB|cAFA DFAc|ed^c<d B2GA|
BGFG DGFG|BGFG D2AB|cAFA DFAB|1 A2G2 G3A:|2 A2G2 G2 (3def||
